X: 12658
T: Farrel O'Gara's
R: reel
M: 4/4
K: Dmajor
A,3B, DEFA|BFAF EFAc|d2cd BdAF|GEFD EDB,D|A,3B, DEFA|
BFAF EFAc|d2cd BdAF|1 GFEG FDDB,:|2 GFEG FDDe||
fd (3ddd fdgd|fdgf edBc|dBBA Bcde|fdgf e2de|
fd (3ddd fdgd|fdgf edBc|dBBA BAGF|GFEG FDDe|
fd (3ddd fdgd|fdgf edBc|dBBA Bcde|fdgf e2de|
faaf edBc|dfed cAFD|EDB,D A,DFA|BdAF EFDB,||

